T: Kilnamona
M: 4/4
L: 1/8
K: Fmaj
d>GB>d G>AB>c | d2 c2 A3 B | c2 A2 e3 c | (3efe d2 B>AB<c | (3ded B>d G>AB>c | (3ded c2 A3 B | (3ccc A2 (3eee d2 |[1 G4 G>AB<c  :||: (3bc'b g>b b>ag>b | a2 a>b a>ge>f | g>ag>e (3ddd B>d | e2 a>e (3aba g>a |b2 b>c' (3bc'b g>b | a>Aa>b a>ge>f | g>ag>e (3ddd B>d |[1 e>Af>A  g>dg<a :|dGBd GABc | d2 c2 A3 B | c2 A2 e3 c | (3efe d2 BABc | (3ded Bd GABc | (3ded c2 A3 B | (3ccc A2 (3eee d2 |[1 G4 GABc :||: (3bc'b gb bagb | a2 ab agef | gage (3ddd Bd | e2 ae (3aba ga |b2 bc' (3bc'b gb | aAab agef | gage (3ddd Bd |[1 eAfA gdga :|
